packages/core/src/svgs/ipor.svg

<svg width="24" height="24" viewBox="0 0 24 24" fill="none" xmlns="http://www.w3.org/2000/svg">
<g clip-path="url(#clip0_31_11909)">
<path d="M0 0H24V24H0V0Z" fill="url(#paint0_linear_31_11909)"/>
<path d="M10.0713 17.5714L3.42847 9.85707L10.0713 16.2856L16.0713 8.14279L16.7142 8.99993L17.807 7.28564L20.5713 12.8571L17.7856 8.35707L16.7142 10.0714L16.0713 9.4285L10.0713 17.5714Z" fill="url(#paint1_linear_31_11909)"/>
<path d="M13.877 13.243C16.4313 13.1573 19.2428 12.9387 20.5713 12.8144C19.2642 12.7201 16.6328 12.5573 14.2585 12.4759L13.8728 13.2473L13.877 13.243ZM12.1585 12.4287L11.6528 13.2859C10.2942 13.2773 8.74275 13.2087 7.3199 13.1187L6.96418 12.5873C8.69391 12.4887 10.4259 12.4358 12.1585 12.4287ZM3.42847 12.8144C3.92132 12.7759 4.61561 12.7287 5.41704 12.6773L5.60132 13.003C4.70561 12.9344 3.94704 12.8659 3.42847 12.8144Z" fill="url(#paint2_linear_31_11909)"/>
</g>
<defs>
<linearGradient id="paint0_linear_31_11909" x1="2.57143" y1="4.5" x2="21.2143" y2="20.1429" gradientUnits="userSpaceOnUse">
<stop offset="0.09" stop-color="#153065"/>
<stop offset="0.61" stop-color="#020923"/>
</linearGradient>
<linearGradient id="paint1_linear_31_11909" x1="3.1199" y1="9.88279" x2="20.5413" y2="9.88279" gradientUnits="userSpaceOnUse">
<stop stop-color="#E6DA88"/>
<stop offset="1" stop-color="#E15F50"/>
</linearGradient>
<linearGradient id="paint2_linear_31_11909" x1="3.54418" y1="12.8573" x2="21.9728" y2="12.8573" gradientUnits="userSpaceOnUse">
<stop offset="0.67" stop-color="#2E80BF"/>
<stop offset="0.95" stop-color="#2A3985"/>
</linearGradient>
<clipPath id="clip0_31_11909">
<rect width="24" height="24" fill="white"/>
</clipPath>
</defs>
</svg>

<svg xmlns="http://www.w3.org/2000/svg" width="24" height="24" fill="none" viewBox="0 0 24 24"><g clip-path="url(#a)"><path fill="url(#b)" d="M0 0h24v24H0z"/><path fill="url(#c)" d="M10.071 17.571 3.428 9.857l6.643 6.429 6-8.143.643.857 1.093-1.714 2.764 5.571-2.785-4.5-1.072 1.714-.643-.643z"/><path fill="url(#d)" d="M13.877 13.243c2.554-.086 5.366-.304 6.694-.429a187 187 0 0 0-6.313-.338l-.385.771zm-1.719-.814-.505.857a80 80 0 0 1-4.333-.167l-.356-.532a98 98 0 0 1 5.195-.158m-8.73.385a156 156 0 0 1 1.989-.137l.184.326c-.895-.069-1.654-.137-2.173-.189"/></g><defs><linearGradient id="b" x1="2.571" x2="21.214" y1="4.5" y2="20.143" gradientUnits="userSpaceOnUse"><stop offset=".09" stop-color="#153065"/><stop offset=".61" stop-color="#020923"/></linearGradient><linearGradient id="c" x1="3.12" x2="20.541" y1="9.883" y2="9.883" gradientUnits="userSpaceOnUse"><stop stop-color="#E6DA88"/><stop offset="1" stop-color="#E15F50"/></linearGradient><linearGradient id="d" x1="3.544" x2="21.973" y1="12.857" y2="12.857" gradientUnits="userSpaceOnUse"><stop offset=".67" stop-color="#2E80BF"/><stop offset=".95" stop-color="#2A3985"/></linearGradient><clipPath id="a"><path fill="#fff" d="M0 0h24v24H0z"/></clipPath></defs></svg>
